X: 1
T: Keith B. Smith
C: James Gray
R: jig
B: Alex & James Gray "Tweeddale Collection" v.49 #3,6
N: Tune for Machine Without Wheels
Z: 2017 John Chambers <jc:trillian.mit.edu>
M: C
L: 1/8
K: Bb
F |\
"Bb"Bcd F2d | "F"cBA "Bb"Bdf | "Eb"g2B "Bb/D"f2B | "Cm"ecB "F"ABc |
"Bb[Gm]"Bcd "[Dm]"F2d | "F[Cm/Eb]"cBA "Bb[/D]"Bdf | "Eb[Cm]"gBG "F"FAc | "Bb"dBB B2 :|
F |\
"Bb"B,2B B2d | "F"cBA "Bb"BFD | "Bb"B,2B B2d | "F"cBA "Bb"Bdf |
"Eb"g2E E2g | "Bb"f2D D2f | "Eb"g2B "Bb"f2B | "Cm"ecB "F"ABc |
"Bb"Bcd F2d |"F"cBA "Bb"Bdf | "Cm"e2c"Bb"d2B | "F/A"cAF "F"EDC |
"Bb"B,2B B2d | "F"cBA "Bb"Bdf | "Eb"gBG "F"FAc | "Bb"BFD B,2 |]
